Simply-White-Circles/scalable/apps/gnome-foot.svg

<svg xmlns="http://www.w3.org/2000/svg" width="48" height="48" viewBox="0 0 12.7 12.7"><path d="M6.34.07a6.29 6.29 0 0 0-6.29 6.3 6.29 6.29 0 0 0 6.3 6.28 6.29 6.29 0 0 0 6.28-6.29A6.29 6.29 0 0 0 6.34.07zM6.32 1l.01.01a5.4 5.4 0 0 1 5.4 5.4 5.4 5.4 0 0 1-5.4 5.41 5.4 5.4 0 0 1-5.41-5.4A5.4 5.4 0 0 1 6.32 1zm2.16 2c-1.32 0-1.57 2.01-.83 2.01.75 0 2.15-2 .83-2zm-2.1.24c-.75.1-.49 1.52-.08 1.55.4.03.84-1.66.08-1.55zm-1.36.44a.48.48 0 0 0-.13.03c-.7.27-.1 1.37.3 1.3.36-.07.4-1.39-.17-1.33zm-.93.89a.38.38 0 0 0-.2.06c-.59.34.2 1.17.53 1.04.3-.11.11-1.09-.33-1.1zm2.71.67c-1.04-.02-2.41.52-2.65 1.62-.25 1.19 1.05 2.83 2.4 2.83.67 0 1.43-.63 1.58-1.42.1-.61-1.38-.37-1.33.03.04.33-.13.5-.37.5-.32-.03-.48-.22-.53-.5-.05-.74 2.28-1.27 2.1-2.42-.07-.42-.58-.63-1.2-.64z" fill="#e6e6e6"/></svg>

<?xml version="1.0" encoding="UTF-8" standalone="no"?>
<svg
   xmlns:dc="http://purl.org/dc/elements/1.1/"
   xmlns:cc="http://creativecommons.org/ns#"
   xmlns:rdf="http://www.w3.org/1999/02/22-rdf-syntax-ns#"
   xmlns:svg="http://www.w3.org/2000/svg"
   xmlns="http://www.w3.org/2000/svg"
   xmlns:sodipodi="http://sodipodi.sourceforge.net/DTD/sodipodi-0.dtd"
   xmlns:inkscape="http://www.inkscape.org/namespaces/inkscape"
   width="48"
   height="48"
   viewBox="0 0 12.7 12.7"
   version="1.1"
   id="svg4"
   sodipodi:docname="gnome-foot.svg"
   inkscape:version="0.92.4 (5da689c313, 2019-01-14)">
  <metadata
     id="metadata10">
    <rdf:RDF>
      <cc:Work
         rdf:about="">
        <dc:format>image/svg+xml</dc:format>
        <dc:type
           rdf:resource="http://purl.org/dc/dcmitype/StillImage" />
        <dc:title></dc:title>
      </cc:Work>
    </rdf:RDF>
  </metadata>
  <defs
     id="defs8" />
  <sodipodi:namedview
     pagecolor="#ffffff"
     bordercolor="#666666"
     borderopacity="1"
     objecttolerance="10"
     gridtolerance="10"
     guidetolerance="10"
     inkscape:pageopacity="0"
     inkscape:pageshadow="2"
     inkscape:window-width="1087"
     inkscape:window-height="480"
     id="namedview6"
     showgrid="false"
     inkscape:zoom="4.9166667"
     inkscape:cx="2.1355932"
     inkscape:cy="24"
     inkscape:window-x="0"
     inkscape:window-y="25"
     inkscape:window-maximized="0"
     inkscape:current-layer="svg4" />
  <path
     d="M 6.34,0.07 A 6.29,6.29 0 0 0 0.05,6.37 6.29,6.29 0 0 0 6.35,12.65 6.29,6.29 0 0 0 12.63,6.36 6.29,6.29 0 0 0 6.34,0.07 Z M 6.32,1 6.33,1.01 a 5.4,5.4 0 0 1 5.4,5.4 5.4,5.4 0 0 1 -5.4,5.41 A 5.4,5.4 0 0 1 0.92,6.42 5.4,5.4 0 0 1 6.32,1 Z M 8.48,3 C 7.16,3 6.91,5.01 7.65,5.01 c 0.75,0 2.15,-2 0.83,-2 z M 6.38,3.24 C 5.63,3.34 5.89,4.76 6.3,4.79 6.7,4.82 7.14,3.13 6.38,3.24 Z M 5.02,3.68 A 0.48,0.48 0 0 0 4.89,3.71 C 4.19,3.98 4.79,5.08 5.19,5.01 5.55,4.94 5.59,3.62 5.02,3.68 Z M 4.09,4.57 A 0.38,0.38 0 0 0 3.89,4.63 C 3.3,4.97 4.09,5.8 4.42,5.67 4.72,5.56 4.53,4.58 4.09,4.57 Z M 6.8,5.24 C 5.76,5.22 4.39,5.76 4.15,6.86 3.9,8.05 5.2,9.69 6.55,9.69 7.22,9.69 7.98,9.06 8.13,8.27 8.23,7.66 6.75,7.9 6.8,8.3 6.84,8.63 6.67,8.8 6.43,8.8 6.11,8.77 5.95,8.58 5.9,8.3 5.85,7.56 8.18,7.03 8,5.88 7.93,5.46 7.42,5.25 6.8,5.24 Z"
     id="path2"
     inkscape:connector-curvature="0"
     style="fill:#e6e6e6" />
</svg>
